static/fa/svgs/solid/chalkboard-user.svg

<svg xmlns="http://www.w3.org/2000/svg" viewBox="0 0 640 512"><!--! Font Awesome Free 6.1.1 by @fontawesome - https://fontawesome.com License - https://fontawesome.com/license/free (Icons: CC BY 4.0, Fonts: SIL OFL 1.1, Code: MIT License) Copyright 2022 Fonticons, Inc.--><path d="M592 0H208c-26.5 0-48 22.25-48 49.63V96c23.42 0 45.1 6.781 63.1 17.81V64h352v288h-64v-48c0-8.838-7.164-16-16-16h-96c-8.836 0-16 7.162-16 16v48h-95.8c22.07 16.48 39.54 38.5 50.76 64h253.9c26.54 0 48.04-22.2 48.04-49.6V49.63C640 22.25 618.5 0 592 0zM160 320c53.02 0 96-42.98 96-96s-42.98-96-96-96c-53.9 0-96 42.1-96 96 0 53 42.1 96 96 96zm32 32h-64C57.31 352 0 409.31 0 480c0 17.67 14.33 32 32 32h256c17.67 0 32-14.33 32-32 0-70.7-57.3-128-128-128z"/></svg>

<svg xmlns="http://www.w3.org/2000/svg" viewBox="0 0 640 512"><!--! Font Awesome Free 6.1.1 by @fontawesome - https://fontawesome.com License - https://fontawesome.com/license/free (Icons: CC BY 4.0, Fonts: SIL OFL 1.1, Code: MIT License) Copyright 2022 Fonticons, Inc. --><path d="M592 0h-384C181.5 0 160 22.25 160 49.63V96c23.42 0 45.1 6.781 63.1 17.81V64h352v288h-64V304c0-8.838-7.164-16-16-16h-96c-8.836 0-16 7.162-16 16V352H287.3c22.07 16.48 39.54 38.5 50.76 64h253.9C618.5 416 640 393.8 640 366.4V49.63C640 22.25 618.5 0 592 0zM160 320c53.02 0 96-42.98 96-96c0-53.02-42.98-96-96-96C106.1 128 64 170.1 64 224C64 277 106.1 320 160 320zM192 352H128c-70.69 0-128 57.31-128 128c0 17.67 14.33 32 32 32h256c17.67 0 32-14.33 32-32C320 409.3 262.7 352 192 352z"/></svg>
